X:62
T:Quadrill. CJF.062
R:Quadrille
S:C.J.Fox MS, 1829/33, Beverley,E.Yorks.
N:I have added a natural in bar 2 of the 2nd section,
N:just before the second g in that bar. – PJH.
B:Kidson Coll.Mitchell Lib.M1805
O:England
A:East Yorkshire
Z:vmp.P J Headford 2000 & 2008
M:2/4
L:1/16
Q:1/4=90
K:G
{e2}d^c|d2{e2}d^c d2{e2}d^c|d2g4dg|b3a gfed|d4c2c>B|!
c2{d2}c>B c2{d2}c>B|c2f4d2|defg abc’f|a4g2||!
d2|g4agfg|^gaba =gfed|fgag fgag|b4a2d2|!
b3a gfed|e2c’b agfe|d2ed ^cdef|a4g2″ D.C.”||!
B2BB G2G2|d6g2|g2g2f2e2|{e2}d6d2|\
d4defg|a6d2|d2^d2 fecA|G4F4|!
B2BB G2G2|d6g2|g2g2f2e2|{e2}d4z2d2|\
d4defg|a4z2d2|dbgd dd’c’a|g2″ D.C.”b2g2|]

